symbols/default/02d.svg

<svg width="100" height="100" viewBox="0 0 100 100" fill="none" xmlns="http://www.w3.org/2000/svg">
<g clip-path="url(#clip0_149_1382)">
<path fill-rule="evenodd" clip-rule="evenodd" d="M79.6983 37.4707L85.4 29.5L68.7 31.3L70.4 14.5L56.8 24.4L50 9L43.2 24.4L29.5 14.5L31.3 31.2L14.5 29.5L24.4 43.1L9 50L24.4 56.8L14.5 70.5L31.2 68.7L29.5 85.5L43.1 75.6L50 91L56.8 75.6L70.5 85.4L69.1501 72.8761H53.4664C50.2444 72.8761 47.2083 71.6988 44.9157 69.4682C42.4992 67.1756 41.1979 64.0775 41.136 60.7315V60.6076C41.136 57.4475 42.3752 54.4733 44.6059 52.2427C46.7745 50.012 49.6248 48.7108 52.7229 48.525C54.3959 46.1084 57.1842 44.6833 60.2203 44.6833H60.9019C64.2479 39.9742 69.7625 37 75.6489 37C77.0332 37 78.39 37.1629 79.6983 37.4707Z" fill="url(#paint0_radial_149_1382)"/>
<path fill-rule="evenodd" clip-rule="evenodd" d="M60.1784 72.8761C48.5871 77.9697 34.7488 73.6638 28.2835 62.5087C21.4817 50.6004 25.5828 35.1897 37.4859 28.2849C49.477 21.487 64.7624 25.5748 71.6741 37.4556C67.344 38.4575 63.4795 41.0556 60.9019 44.6833H60.2203C57.1842 44.6833 54.3959 46.1084 52.7229 48.525C49.6248 48.7108 46.7745 50.012 44.6059 52.2427C42.3752 54.4733 41.136 57.4475 41.136 60.6076V60.7315C41.1979 64.0775 42.4992 67.1756 44.9157 69.4682C47.2083 71.6988 50.2444 72.8761 53.4664 72.8761H60.1784Z" fill="#FFD348"/>
<path fill-rule="evenodd" clip-rule="evenodd" d="M46.3565 70.6654C40.4543 69.6101 35.0272 66.0585 31.7994 60.4934C26.0006 50.4955 29.4999 37.5982 39.4978 31.7994C49.2722 26.1302 61.8179 29.3481 67.7924 38.8372C65.0639 40.1739 62.6775 42.1843 60.9019 44.6833H60.2203C57.1842 44.6833 54.3959 46.1085 52.7229 48.525C49.6248 48.7109 46.7745 50.0121 44.6059 52.2427C42.3752 54.4734 41.136 57.4475 41.136 60.6076V60.7315C41.1979 64.0775 42.4992 67.1756 44.9157 69.4682C45.3684 69.9087 45.8501 70.3081 46.3565 70.6654Z" fill="url(#paint1_linear_149_1382)"/>
<path fill-rule="evenodd" clip-rule="evenodd" d="M90.272 52.4285C89.0947 45.4268 82.8985 40.0981 75.6489 40.0981C70.0103 40.0981 64.9294 43.2582 62.451 48.2151C61.7074 47.9053 60.9639 47.7814 60.2203 47.7814C57.6179 47.7814 55.3873 49.3304 54.5198 51.623C54.148 51.5611 53.8382 51.5611 53.4664 51.5611C50.926 51.5611 48.5714 52.5525 46.8365 54.3494C45.1635 56.0843 44.2341 58.315 44.2341 60.6695V60.7934C44.296 63.3339 45.2874 65.6265 47.0843 67.2995C48.7573 68.9724 51.0499 69.9019 53.4664 69.9019H87.9794C92.8744 69.9019 96.9019 65.9363 96.9019 61.0413C96.9019 56.9518 94.1136 53.4199 90.272 52.4285Z" fill="#DDDDDD"/>
<g opacity="0.6">
<path fill-rule="evenodd" clip-rule="evenodd" d="M90.272 52.4285C89.0947 45.4268 82.8985 40.0981 75.6489 40.0981C70.0103 40.0981 64.9294 43.2582 62.451 48.2151C61.7074 47.9053 60.9639 47.7814 60.2203 47.7814C57.6179 47.7814 55.3873 49.3304 54.5198 51.623C54.148 51.5611 53.8382 51.5611 53.4664 51.5611C50.926 51.5611 48.5714 52.5525 46.8365 54.3494C45.1635 56.0843 44.2341 58.315 44.2341 60.6695V60.7934C44.296 63.3339 45.2874 65.6265 47.0843 67.2995C48.7573 68.9724 51.0499 69.9019 53.4664 69.9019H87.9794C92.8744 69.9019 96.9019 65.9363 96.9019 61.0413C96.9019 56.9518 94.1136 53.4199 90.272 52.4285Z" fill="url(#paint2_linear_149_1382)" style="mix-blend-mode:multiply"/>
</g>
</g>
<defs>
<radialGradient id="paint0_radial_149_1382" cx="0" cy="0" r="1" gradientUnits="userSpaceOnUse" gradientTransform="translate(50 50) scale(41)">
<stop offset="0.5143" stop-color="#D6B849"/>
<stop offset="0.6523" stop-color="#FFCE47"/>
<stop offset="1" stop-color="#FFDB73"/>
</radialGradient>
<linearGradient id="paint1_linear_149_1382" x1="36.4958" y1="33.9076" x2="63.4951" y2="66.0842" gradientUnits="userSpaceOnUse">
<stop stop-color="#FFAF22"/>
<stop offset="0.9897" stop-color="#F09900"/>
</linearGradient>
<linearGradient id="paint2_linear_149_1382" x1="69.3287" y1="49.7022" x2="70.568" y2="69.9019" gradientUnits="userSpaceOnUse">
<stop offset="0.484375" stop-color="white" stop-opacity="0"/>
<stop offset="1" stop-color="#B3B2B2"/>
</linearGradient>
<clipPath id="clip0_149_1382">
<rect width="100" height="100" fill="white"/>
</clipPath>
</defs>
</svg>

<svg xmlns="http://www.w3.org/2000/svg" fill="none" viewBox="0 0 100 100">
  <g clip-path="url(#a)">
    <path fill="url(#b)" fill-rule="evenodd" d="M79.698 37.47 85.4 29.5l-16.7 1.8 1.7-16.8-13.6 9.9L50 9l-6.8 15.4-13.7-9.9 1.8 16.7-16.8-1.7 9.9 13.6L9 50l15.4 6.8-9.9 13.7 16.7-1.8-1.7 16.8 13.6-9.9L50 91l6.8-15.4 13.7 9.8-1.35-12.524H53.466c-3.222 0-6.258-1.177-8.55-3.408-2.417-2.292-3.718-5.39-3.78-8.737v-.123c0-3.16 1.24-6.135 3.47-8.365a12.25 12.25 0 0 1 8.117-3.718c1.673-2.417 4.461-3.842 7.497-3.842h.682C64.248 39.974 69.762 37 75.649 37c1.384 0 2.741.163 4.05.47Z" clip-rule="evenodd"/>
    <path fill="#FFD348" fill-rule="evenodd" d="M60.178 72.876c-11.59 5.094-25.43.788-31.894-10.367-6.802-11.909-2.701-27.32 9.202-34.224 11.991-6.798 27.276-2.71 34.188 9.17a18.36 18.36 0 0 0-10.772 7.228h-.682c-3.036 0-5.824 1.425-7.497 3.842a12.25 12.25 0 0 0-8.117 3.718 11.765 11.765 0 0 0-3.47 8.365v.123c.062 3.346 1.363 6.445 3.78 8.737 2.292 2.23 5.328 3.408 8.55 3.408h6.712Z" clip-rule="evenodd"/>
    <path fill="url(#c)" fill-rule="evenodd" d="M46.356 70.665C40.454 69.61 35.027 66.058 31.8 60.493c-5.798-9.998-2.3-22.895 7.699-28.694 9.774-5.669 22.32-2.45 28.294 7.038a18.394 18.394 0 0 0-6.89 5.846h-.682c-3.036 0-5.824 1.425-7.497 3.842a12.25 12.25 0 0 0-8.117 3.718 11.766 11.766 0 0 0-3.47 8.365v.123c.062 3.346 1.363 6.445 3.78 8.737.452.44.934.84 1.44 1.197Z" clip-rule="evenodd"/>
    <path fill="#DDD" fill-rule="evenodd" d="M90.272 52.428c-1.177-7.001-7.374-12.33-14.623-12.33-5.639 0-10.72 3.16-13.198 8.117a5.715 5.715 0 0 0-2.23-.434c-2.603 0-4.834 1.55-5.701 3.842-.372-.062-.682-.062-1.054-.062-2.54 0-4.895.992-6.63 2.788-1.672 1.735-2.602 3.966-2.602 6.32v.124c.062 2.54 1.053 4.833 2.85 6.506 1.673 1.673 3.966 2.603 6.382 2.603H87.98c4.895 0 8.923-3.966 8.923-8.86 0-4.09-2.788-7.622-6.63-8.614Z" clip-rule="evenodd"/>
    <path fill="url(#d)" fill-rule="evenodd" d="M90.272 52.428c-1.177-7.001-7.374-12.33-14.623-12.33-5.639 0-10.72 3.16-13.198 8.117a5.715 5.715 0 0 0-2.23-.434c-2.603 0-4.834 1.55-5.701 3.842-.372-.062-.682-.062-1.054-.062-2.54 0-4.895.992-6.63 2.788-1.672 1.735-2.602 3.966-2.602 6.32v.124c.062 2.54 1.053 4.833 2.85 6.506 1.673 1.673 3.966 2.603 6.382 2.603H87.98c4.895 0 8.923-3.966 8.923-8.86 0-4.09-2.788-7.622-6.63-8.614Z" clip-rule="evenodd" opacity=".6" style="mix-blend-mode:multiply"/>
    <g filter="url(#e)" opacity=".3" style="mix-blend-mode:multiply">
      <path fill="#B6B6B6" d="M58.176 65.503c1.107 0 15.396-.789 16.407-1.24 1.382-.616-1.481-4.32 0-4.628.669-.139 1.652-.575 1.652-.575s2.698-.992 3.163-.992c.465 0 .232-1.837.086-2.98l-.086-.819c0-.539-1.606-1.657-1.86-3.017-.175-.947.263-2.221.172-2.459 0 0-.032-.017-.023-.02.01-.002.017.005.023.02.07.033.571.203.571.203 1.207.409 3.116 1.078 4.834 2.256 1.028.704 2.442 2.053 2.442 2.053s1.02.788 1.276 1.045c.62.62 2.478 2.478 3.718 2.478h3.098l1.394.985.31 1.99c0 4.895-4.028 8.86-8.923 8.86H51.36s2.788-3.16 6.816-3.16Z"/>
    </g>
  </g>
  <defs>
    <linearGradient id="c" x1="36.496" x2="63.495" y1="33.908" y2="66.084" gradientUnits="userSpaceOnUse">
      <stop stop-color="#FFAF22"/>
      <stop offset=".99" stop-color="#F09900"/>
    </linearGradient>
    <linearGradient id="d" x1="69.329" x2="70.568" y1="49.702" y2="69.902" gradientUnits="userSpaceOnUse">
      <stop offset=".484" stop-color="#fff" stop-opacity="0"/>
      <stop offset="1" stop-color="#B3B2B2"/>
    </linearGradient>
    <radialGradient id="b" cx="0" cy="0" r="1" gradientTransform="matrix(41 0 0 41 50 50)" gradientUnits="userSpaceOnUse">
      <stop offset=".514" stop-color="#D6B849"/>
      <stop offset=".652" stop-color="#FFCE47"/>
      <stop offset="1" stop-color="#FFDB73"/>
    </radialGradient>
    <clipPath id="a">
      <path fill="#fff" d="M0 0h100v100H0z"/>
    </clipPath>
    <filter id="e" width="52.668" height="28.565" x="47.022" y="44.435" color-interpolation-filters="sRGB" filterUnits="userSpaceOnUse">
      <feFlood flood-opacity="0" result="BackgroundImageFix"/>
      <feBlend in="SourceGraphic" in2="BackgroundImageFix" result="shape"/>
      <feGaussianBlur result="effect1_foregroundBlur_149_1382" stdDeviation="2.169"/>
    </filter>
  </defs>
</svg>
